X:25
T: Jók a leányok, nem rosszak...
O: Gyergyócsomafalva (Csík), ?, 1907
Q: "Moderato"
M:2/4
L:1/4
K:G
g/f/g/d/ | e/f/g | d z | 
e/e/d/c/ | B/A/B | G z | 
B/B/A/G/ | A/B/c | A z | 
e/e/d/c/ | B/A/B | G z | 

